src/img/new-site/icon_rd2.svg

<?xml version="1.0" encoding="UTF-8"?>
<svg width="24px" height="24px" viewBox="0 0 24 24" version="1.1" xmlns="http://www.w3.org/2000/svg" xmlns:xlink="http://www.w3.org/1999/xlink">
    <!-- Generator: Sketch 42 (36781) - http://www.bohemiancoding.com/sketch -->
    <title>icon_rd</title>
    <desc>Created with Sketch.</desc>
    <defs></defs>
    <g id="Page-1" stroke="none" stroke-width="1" fill="none" fill-rule="evenodd">
        <g id="Artboard-Copy" transform="translate(-587.000000, -2370.000000)">
            <g id="Group-18" transform="translate(0.000000, 2073.000000)">
                <g id="Group-16" transform="translate(211.000000, 20.000000)">
                    <g id="Group-17" transform="translate(332.000000, 0.000000)">
                        <g id="Group-12">
                            <g id="Group-2" transform="translate(40.000000, 97.000000)">
                                <g id="icon_rd" transform="translate(4.000000, 180.000000)">
                                    <rect id="Rectangle-13" fill="#D8D8D8" opacity="0" x="0" y="0" width="24" height="24"></rect>
                                    <path d="M19.6500244,13 C20.3645556,13 21.0248096,12.6188022 21.3820752,12 C21.7393408,11.3811979 21.7393408,10.6188021 21.3820752,9.99999999 C21.0248096,9.38119783 20.3645556,8.99999998 19.6500244,9 C18.5454549,9 17.6500244,9.8954305 17.6500244,11 C17.6500244,12.1045695 18.5454549,13 19.6500244,13 Z M4.34999998,13 C5.06453116,13 5.72478521,12.6188022 6.0820508,12 C6.4393164,11.3811979 6.4393164,10.6188021 6.0820508,9.99999999 C5.72478521,9.38119783 5.06453116,8.99999998 4.34999998,9 C3.24543049,9 2.35,9.8954305 2.35,11 C2.35,12.1045695 3.24543049,13 4.34999998,13 L4.34999998,13 Z M12,21 C16.694,21 20.5,18.314 20.5,15 C20.5,11.686 16.694,9 12,9 C7.306,9 3.5,11.686 3.5,15 C3.5,18.314 7.306,21 12,21 Z M11.998,18.958 L11.998,18.957 C10.8732913,18.9560499 9.76488464,18.6880308 8.764,18.175 C8.638,18.109 8.546,18.055 8.483,18.015 C8.109,17.762 8.049,17.272 8.358,16.952 C8.639,16.661 9.133,16.617 9.476,16.85 C10.534,17.586 12.474,17.954 14.584,16.81 C14.947,16.607 15.432,16.692 15.684,17.007 C15.97,17.353 15.849,17.833 15.45,18.055 C14.314,18.675 13.151,18.958 11.998,18.958 Z M8.6,14.9 C7.66111593,14.9 6.9,14.1388841 6.9,13.2 C6.9,12.2611159 7.66111593,11.5 8.6,11.5 C9.53888407,11.5 10.3,12.2611159 10.3,13.2 C10.3,14.1388841 9.53888407,14.9 8.6,14.9 Z M15.4,14.9 C14.4611159,14.9 13.7,14.1388841 13.7,13.2 C13.7,12.2611159 14.4611159,11.5 15.4,11.5 C16.3388841,11.5 17.1,12.2611159 17.1,13.2 C17.1,14.1388841 16.3388841,14.9 15.4,14.9 Z" id="Combined-Shape" fill="#FFFFFF" fill-rule="nonzero"></path>
                                    <polyline id="Shape" stroke="#FFFFFF" stroke-width="1.5" points="11.844 11.805 12.337 6.261 16.46 5.191"></polyline>
                                    <circle id="Oval" stroke="#FFFFFF" stroke-width="0.8" fill="#FFFFFF" fill-rule="nonzero" cx="16.7" cy="5.1" r="1.5"></circle>
                                </g>
                            </g>
                        </g>
                    </g>
                </g>
            </g>
        </g>
    </g>
</svg>

<svg width="24" height="24" viewBox="0 0 24 24" xmlns="http://www.w3.org/2000/svg"><title>icon_rd</title><g fill="none" fill-rule="evenodd"><path d="M19.65 13a2 2 0 1 0 0-4 2 2 0 0 0 0 4zm-15.3 0a2 2 0 1 0 0-4 2 2 0 0 0 0 4zM12 21c4.694 0 8.5-2.686 8.5-6S16.694 9 12 9s-8.5 2.686-8.5 6 3.806 6 8.5 6zm-.002-2.042v-.001a7.103 7.103 0 0 1-3.234-.782 3.965 3.965 0 0 1-.281-.16c-.374-.253-.434-.743-.125-1.063.281-.291.775-.335 1.118-.102 1.058.736 2.998 1.104 5.108-.04.363-.203.848-.118 1.1.197.286.346.165.826-.234 1.048-1.136.62-2.299.903-3.452.903zM8.6 14.9a1.7 1.7 0 1 1 0-3.4 1.7 1.7 0 0 1 0 3.4zm6.8 0a1.7 1.7 0 1 1 0-3.4 1.7 1.7 0 0 1 0 3.4z" fill="#FFF" fill-rule="nonzero"/><path stroke="#FFF" stroke-width="1.5" d="M11.844 11.805l.493-5.544 4.123-1.07"/><circle stroke="#FFF" stroke-width=".8" fill="#FFF" fill-rule="nonzero" cx="16.7" cy="5.1" r="1.5"/></g></svg>
